X: 12135
T: Evil Diane
R: reel
M: 4/4
K: Amajor
|:EDEF GABc|d2 EF GABc|d2 cd B2 AB|GBAB GBAG|
EDEF GABc|d2 EF GABc|d2 cd B2 AB|1 GDEG A4:|2 GDEG A2||
|:eg|aeea fedc|decd BcAF|EDEF GABG|AGAB cdeg|
aeea fedc|decd BcAF|EDEF GABG|1 AFEF A2:|2 AFEF A4||

